!!!!SEGMENT: pl-kk--kk-i-2--004-001_moulu-pierre--missa-i-alma-redemptoris-mater-kyrie.krn
!!!cenid: 16xx:1593
!!!COM: Moulu, Pierre
!!!COM-rismID: pe30016304
!!!CDT: ~1484-~1550
!!!CNT: French
!!!OPR: Missa I [Alma redemptoris mater]
!!!OTL: Kyrie
!!!OMV: 001
!!!PDT:
!!!AGN: Sacred; Mass
!!!SMS-siglum: PL-Kk
!!!SMS-shelfmark: Kk.I.2
!!!SMS-shelfwork: 004-001 M
!!!NIFC-rismSourceID: 300258020
!!!NIFC-islandoraID: pl-kk:750
!!!URL-pdf-islandora: https://repozytorium.nifc.pl/islandora/object/pl-kk%3A750/datastream/PDF/view
!!!URL-scan: https://polish.musicsources.pl/pl/lokalizacje/galeria/rekopisy/5828 @EN{Scan on Polish Music Sources Website} @PL{Skany w portalu Dziedzictwo Muzyki Polskiej w otwartym dostępie}
!!!ONB-nifc: Części mszy: Kyrie, Gloria, Credo, Sanctus, Agnus Dei; skany: C: 0006; A: 0106; T: 0210; B: 0310;
!!!AIN: 1 alto 1 bass 1 soprn 1 tenor
!!!key:
**kern	**text	**kern	**text	**kern	**text	**kern	**text
*part4	*part4	*part3	*part3	*part2	*part2	*part1	*part1
*staff4	*staff4	*staff3	*staff3	*staff2	*staff2	*staff1	*staff1
*I"BASVS	*	*I"TENOR	*	*I"ALTVS	*	*I"DISCANTVS	*
*I'B	*	*I'T	*	*I'A	*	*I'S	*
*Ibass	*	*Itenor	*	*Ialto	*	*Isoprn	*
*ICvox	*	*ICvox	*	*ICvox	*	*ICvox	*
*clefF3	*	*clefC3	*	*clefC3	*	*clefG2	*
*k[b-]	*	*k[b-]	*	*k[b-]	*	*k[b-]	*
*F:	*	*F:	*	*F:	*	*F:	*
*M2/1	*	*M2/1	*	*M2/1	*	*M2/1	*
*met(C|)	*	*met(C|)	*	*met(C|)	*	*met(C|)	*
*all\right	*	*all\right	*	*all\right	*	*all\right	*
=1-	=1-	=1-	=1-	=1-	=1-	=1-	=1-
!LO:TX:t=P:problem=przy kluczu BB-	!	!	!	!	!	!	!
1.F	Ki-	0F,<	Ky-	1.f	Kẏ-	1f	Ky-
.	.	.	.	.	.	2.a/	-ri-
*	*	*	*	*2\right	*	*	*
!LO:TX:t=P:problem=kreska pseudotaktowa	!	!	!	!	!	!	!
2F/	-ri-	.	.	2f,<\	-ri-	.	.
!	!	!	!	!	!	!LO:TX:t=P:problem=kreska pseudotaktowa	!
.	.	.	.	.	.	4b-/	.
=2-	=2-	=2-	=2-	=2-	=2-	=2-	=2-
1.F	-e	2.A/	-ri-	2.f\	-e	0cc,<	-e
!	!	!LO:TX:t=P:problem=kreska pseudotaktowa	!	!	!	!	!
.	.	4G/	.	8e\	.	.	.
!	!	!	!	!LO:TX:t=P:problem=kreska pseudotaktowa	!	!	!
.	.	.	.	8d\	.	.	.
.	.	4A/	.	2c/	.	.	.
.	.	4B-/	.	.	.	.	.
2E/	.	1c,</	.	2e,<\	.	.	.
=3-	=3-	=3-	=3-	=3-	=3-	=3-	=3-
*lig	*	*	*	*	*	*2\right	*
1D	.	.	.	1f	.	2dd\	.
.	.	2B-/	.	.	.	1ff	.
!LO:TX:t=P:problem=kreska pseudotaktowa	!	!LO:TX:t=P:problem=kreska pseudotaktowa	!	!	!	!	!
1C	.	1c	-e	1g,<	.	.	.
!	!	!	!	!	!	!LO:TX:t=P:problem=kreska pseudotaktowa	!
.	.	.	.	.	.	2ee\	.
*Xlig	*	*	*	*	*	*	*
=4-	=4-	=4-	=4-	=4-	=4-	=4-	=4-
*	*ij	*	*	*	*	*	*
1.F	Ki-	2r	.	2.f\	.	2.ff\	.
.	.	2c/	.	.	.	.	.
!	!	!	!	!LO:TX:t=P:problem=kreska pseudotaktowa	!	!	!
.	.	.	.	4g\	.	4ee\	.
*	*	*2\right	*	*	*	*	*
!	!	!	!	!LO:TX:t=P:problem=kreska pseudotaktowa	!	!	!
.	.	2.f\	.	1a	.	2dd\	.
!LO:TX:t=P:problem=kreska pseudotaktowa	!	!	!	!	!	!LO:TX:t=P:problem=kreska pseudotaktowa	!
2F/	-ri-	.	.	.	.	2cc/	.
!	!	!LO:TX:t=P:problem=kreska pseudotaktowa	!	!	!	!	!
.	.	4e\	.	.	.	.	.
=5-	=5-	=5-	=5-	=5-	=5-	=5-	=5-
2G/	-e	2d/	.	2r	.	2r	.
*2\right	*Xij	*	*	*	*	*	*
!	!	!	!	!LO:TX:t=P:problem=kreska pseudotaktowa	!	!	!
2A\	.	1f	.	2c/	.	1a	.
1B-	.	.	.	2d,</	.	.	.
!	!	!	!	!	!	!LO:TX:t=P:problem=kreska pseudotaktowa	!
.	.	4e\	.	2e\	.	2g/	.
!	!	!LO:TX:t=P:problem=kreska pseudotaktowa	!	!	!	!	!
.	.	4d\	.	.	.	.	.
=6-	=6-	=6-	=6-	=6-	=6-	=6-	=6-
2A\	.	2c/	.	4f\	.	2a/	.
.	.	.	.	4c/	.	.	.
!LO:TX:t=P:problem=kreska pseudotaktowa	!	!	!	!	!	!	!
2B-\	.	1d	.	1f	.	2f/	.
1G	.	.	.	.	.	1g	.
!	!	!	!	!LO:TX:t=P:problem=kreska pseudotaktowa	!	!	!
.	.	4c/	.	2e\	.	.	.
.	.	4B-,</	.	.	.	.	.
=7-	=7-	=7-	=7-	=7-	=7-	=7-	=7-
!LO:TX:t=P:problem=kreska pseudotaktowa	!	!LO:TX:t=P:problem=kreska pseudotaktowa	!	!	!	!LO:TX:t=P:problem=kreska pseudotaktowa	!
1F	.	1c	.	2.f\	.	0a	.
*	*	*	*	*custos:d	*	*	*
!	!	!	!	!LO:TX:t=P:problem=kreska pseudotaktowa	!	!	!
.	.	.	.	4e\	.	.	.
!	!	!	!	!LO:LB:g=original	!	!	!
2r	.	2r	.	2d/	.	.	.
!	!	!	!	!LO:TX:t=P:problem=kreska pseudotaktowa	!	!	!
2F/	.	2A,</	.	2c/	.	.	.
=8-	=8-	=8-	=8-	=8-	=8-	=8-	=8-
2D/	.	2A/	.	2r	.	2r	.
!LO:TX:t=P:problem=kreska pseudotaktowa	!	!LO:TX:t=P:problem=kreska pseudotaktowa	!	!	!	!	!
2F/	.	2A/	.	1f	.	2cc\	.
*	*	*	*	*	*	*custos:f	*
!	!	!	!	!	!	!LO:TX:t=P:problem=kreska pseudotaktowa	!
1C	.	1G,<	.	.	.	1cc	.
!	!	!	!	!LO:TX:t=P:problem=kreska pseudotaktowa	!	!	!
.	.	.	.	2e\	.	.	.
!	!	!	!	!	!	!LO:LB:g=original	!
=9-	=9-	=9-	=9-	=9-	=9-	=9-	=9-
2F/	.	2A/	.	4d/	.	1f	.
.	.	.	.	4c/	.	.	.
*custos:G	*	*	*	*	*	*	*
!LO:TX:t=P:problem=kreska pseudotaktowa	!	!	!	!	!	!	!
2A/	.	1c	.	1f	.	.	.
!LO:LB:g=original	!	!	!	!	!	!	!
1G	.	.	.	.	.	1g,<	.
!	!	!	!	!LO:TX:t=P:problem=kreska pseudotaktowa	!	!	!
.	.	2B-,</	.	2e\	.	.	.
=10-	=10-	=10-	=10-	=10-	=10-	=10-	=10-
*	*	*custos:B	*	*	*	*	*
!	!	!LO:TX:t=P:problem=kreska pseudotaktowa	!	!	!	!	!
!	!	!	!	!	!	!LO:TX:t=P:problem=kreska pseudotaktowa	!
1F	.	1c	.	2.f\	.	1a	.
.	.	.	.	4e\	.	.	.
!	!	!LO:LB:g=original	!	!	!	!	!
2G\	.	2B-/	.	2d\	.	2b-/	.
2.F/	e-	2c,</	e-	2f,<\	e-	2.a,</	e-
=11-	=11-	=11-	=11-	=11-	=11-	=11-	=11-
.	.	2A/	-le-	1F	-le-	.	.
4E/	.	.	.	.	.	4g/	.
2D/	-le-	2B-/	.	.	.	1f	-le-
1C	-i-	1G,<	-i-	1c,<	-i-	.	.
.	.	.	.	.	.	2e,</	-i-
=12-	=12-	=12-	=12-	=12-	=12-	=12-	=12-
*	*	*	*	*custos:a	*	*	*
0Fl	-ſon	0Fl	-ſon	0cl	-ſon	0fl;	-ſon
*	*	*	*	*clefC2	*	*	*
=13||	=13||	=13||	=13||	=13||	=13||	=13||	=13||
*M2/1	*	*M2/1	*	*M2/1	*	*M2/1	*
*met(C|)	*	*met(C|)	*	*met(C|)	*	*met(C|)	*
0F	Chri-	1c	CHRi-	1a	CHri-	0cc,<	CHri-
.	.	2.f\	.	2.a\	.	.	.
.	.	4e,<\	.	4g,<\	.	.	.
=14-	=14-	=14-	=14-	=14-	=14-	=14-	=14-
2.B-\	.	2d\	-ſte	4f\	-ſte	1dd	-ſte
.	.	.	.	4e/	.	.	.
!	!	!	!	!LO:TX:t=P:problem=kreska pseudotaktowa	!	!	!
.	.	2.g\	.	2d/	.	.	.
4A\	.	.	.	.	.	.	.
2G\	-ſte	.	.	2g\	.	1ee,<	.
.	.	4f\	.	.	.	.	.
!	!	!LO:TX:t=P:problem=kreska pseudotaktowa	!	!	!	!	!
1c\	.	2e,<\	.	1a\	.	.	.
=15-	=15-	=15-	=15-	=15-	=15-	=15-	=15-
!	!	!	!	!	!	!LO:TX:t=P:problem=kreska pseudotaktowa	!
.	.	1d	.	.	.	1ff	.
!LO:TX:t=P:problem=kreska pseudotaktowa	!	!	!	!	!	!	!
2B-\	.	.	.	4g\	.	.	.
!	!	!	!	!LO:TX:t=P:problem=kreska pseudotaktowa	!	!	!
.	.	.	.	4f\	.	.	.
2c\	.	2e\	.	2.g\	.	2ee\	.
2G\	.	1g,<\	.	.	.	2.dd,<\	.
.	.	.	.	4f,<\	.	.	.
=16-	=16-	=16-	=16-	=16-	=16-	=16-	=16-
1A	.	.	.	2e/	.	.	.
.	.	.	.	.	.	4cc\	.
!	!	!	!	!LO:TX:t=P:problem=kreska pseudotaktowa	!	!	!
.	.	2f\	.	2c/	.	1cc	.
!LO:TX:t=P:problem=kreska pseudotaktowa	!	!LO:TX:t=P:problem=kreska pseudotaktowa	!	!	!	!	!
1G	.	0g,<	.	1d,<	.	.	.
!	!	!	!	!	!	!LO:TX:t=P:problem=kreska pseudotaktowa	!
.	.	.	.	.	.	2b-/	.
=17-	=17-	=17-	=17-	=17-	=17-	=17-	=17-
2r	.	.	.	2.c/	.	2.cc/	.
2.c\	.	.	.	.	.	.	.
.	.	.	.	4d/	.	4b-/	.
.	.	2r	.	1e-X,<	.	4g/	.
4B-\	.	.	.	.	.	4a/	.
4G\	.	2.g,<\	.	.	.	2.b-,</	.
*custos:B	*	*	*	*	*	*	*
!LO:TX:t=P:problem=kreska pseudotaktowa	!	!	!	!	!	!	!
4A\	.	.	.	.	.	.	.
!LO:LB:g=original	!	!	!	!	!	!	!
=18-	=18-	=18-	=18-	=18-	=18-	=18-	=18-
!	!	!	!	!LO:TX:t=P:problem=kreska pseudotaktowa	!	!	!
2.B-\	.	.	.	1d	.	.	.
*	*	*	*	*	*	*custos:f	*
.	.	4f\	.	.	.	4a/	.
!	!	!	!	!	!	!LO:LB:g=original	!
.	.	4d\	.	.	.	4f/	.
!	!	!LO:TX:t=P:problem=kreska pseudotaktowa	!	!	!	!LO:TX:t=P:problem=kreska pseudotaktowa	!
4A\	.	4e\	.	.	.	4g/	.
2F/	.	2f\	.	2.c/	.	4a/	.
.	.	.	.	.	.	4b-/	.
1A\	.	4e\	.	.	.	2.cc,</	.
.	.	4d,<\	.	4d,</	.	.	.
=19-	=19-	=19-	=19-	=19-	=19-	=19-	=19-
.	.	2c/	.	4eny/	.	.	.
.	.	.	.	4c/	.	4b-/	.
4G\	.	1f	.	1d	.	1a	.
!LO:TX:t=P:problem=kreska pseudotaktowa	!	!	!	!	!	!	!
4F/	.	.	.	.	.	.	.
1G	.	.	.	.	.	.	.
.	.	2e,<\	.	4c/	.	2g,</	.
!	!	!	!	!LO:TX:t=P:problem=kreska pseudotaktowa	!	!	!
.	.	.	.	4B-/	.	.	.
=20-	=20-	=20-	=20-	=20-	=20-	=20-	=20-
!	!	!LO:TX:t=P:problem=kreska pseudotaktowa	!	!	!	!LO:TX:t=P:problem=kreska pseudotaktowa	!
0F	.	0f,<	.	2d/	.	1a	.
!	!	!	!	!LO:TX:t=P:problem=kreska pseudotaktowa	!	!	!
.	.	.	.	2c/	.	.	.
.	.	.	.	2r	.	2r	.
!	!	!	!	!LO:TX:t=P:problem=kreska pseudotaktowa	!	!	!
.	.	.	.	2c/	.	1cc,</	.
=21-	=21-	=21-	=21-	=21-	=21-	=21-	=21-
*	*	*custos:A	*	*	*	*	*
!LO:TX:t=P:problem=kreska pseudotaktowa	!	!	!	!	!	!	!
1F	.	2r	.	2.f/	.	.	.
!	!	!LO:LB:g=original	!	!	!	!	!
!	!	!LO:TX:t=P:problem=kreska pseudotaktowa	!	!	!	!	!
.	.	2A/	.	.	.	4b-/	.
!	!	!	!	!	!	!LO:TX:t=P:problem=kreska pseudotaktowa	!
.	.	.	.	4e/	.	4a/	.
2.G/	.	1B-,<	.	1.d,<	.	2g/	.
.	.	.	.	.	.	2g,</	.
4F/	.	.	.	.	.	.	.
=22-	=22-	=22-	=22-	=22-	=22-	=22-	=22-
2D/	.	1A	.	.	.	2.f/	.
1F	.	.	.	2d/	.	.	.
.	.	.	.	.	.	4g/	.
.	.	4A/	.	2.c/	.	4a/	.
.	.	4G/	.	.	.	4b-/	.
4E/	.	4A/	.	.	.	1cc,</	.
*	*	*	*	*custos:e	*	*	*
!	!	!	!	!LO:TX:t=P:problem=kreska pseudotaktowa	!	!	!
!LO:TX:t=P:problem=kreska pseudotaktowa	!	!LO:TX:t=P:problem=kreska pseudotaktowa	!	!	!	!	!
4D/	.	4B-/	.	4d/	.	.	.
!	!	!	!	!LO:LB:g=original	!	!	!
=23-	=23-	=23-	=23-	=23-	=23-	=23-	=23-
2C/	.	1c	.	2e/	.	.	.
!	!	!	!	!LO:TX:t=P:problem=kreska pseudotaktowa	!	!LO:TX:t=P:problem=kreska pseudotaktowa	!
2F/	.	.	.	2f/	.	2a/	e-
2G\	.	2B-/	.	2d/	.	2b-/	.
1A\	.	2A,</	.	1c,</	e-	2.cc,</	.
=24-	=24-	=24-	=24-	=24-	=24-	=24-	=24-
.	.	2.c/	.	.	.	.	.
.	.	.	.	.	.	4b-/	.
!LO:TX:t=P:problem=kreska pseudotaktowa	!	!	!	!	!	!	!
2F/	e-	.	.	1f	-le-	1a	-le-
!	!	!LO:TX:t=P:problem=kreska pseudotaktowa	!	!	!	!	!
.	.	4d\	.	.	.	.	.
1G	-le-	1B-,<	e-	.	.	.	.
.	.	.	.	2e,</	-i-	2g,</	-i-
=25-	=25-	=25-	=25-	=25-	=25-	=25-	=25-
*	*	*	*	*	*	*custos:a	*
2.D/	-i-	1.A	-le-	00f	-ſon	[0al	-ſon
4E/	.	.	.	.	.	.	.
*custos:F	*	*	*	*	*	*	*
[1Fl;	-ſon	.	.	.	.	.	.
.	.	4G/	-i-	.	.	.	.
.	.	4F,</	.	.	.	.	.
=26-	=26-	=26-	=26-	=26-	=26-	=26-	=26-
0F]	.	0cl	-ſon	.	.	0a]	.
*	*	*	*	*	*	*clefC1	*
!LO:LB:g=original	!	!	!	!	!	!LO:LB:g=original	!
=27||	=27||	=27||	=27||	=27||	=27||	=27||	=27||
*	*	*	*	*clefC3	*	*	*
*M2/1	*	*M2/1	*	*M2/1	*	*M2/1	*
*met(C|)	*	*met(C|)	*	*met(C|)	*	*met(C|)	*
1.F	Ki-	2.F/	Ki-	0f	Ki-	2.a\	Ki-
.	.	4G/	.	.	.	4b-\	.
.	.	2A/	-ri-	.	.	2cc\	.
!LO:TX:t=P:problem=kreska pseudotaktowa	!	!	!	!	!	!	!
2BB-/	-ri-	2B-,</	.	.	.	2.dd,<\	-ri-
=28-	=28-	=28-	=28-	=28-	=28-	=28-	=28-
*	*	*	*	*lig	*	*	*
1C	-e	0G,<	-e	1e	-ri-	.	.
.	.	.	.	.	.	4cc\	.
.	.	.	.	.	.	1cc	-e
1G	.	.	.	1d,<	.	.	.
!	!	!	!	!	!	!LO:TX:t=P:problem=kreska pseudotaktowa	!
.	.	.	.	.	.	2b-\	.
*	*	*	*	*Xlig	*	*	*
=29-	=29-	=29-	=29-	=29-	=29-	=29-	=29-
!LO:TX:t=P:problem=kreska pseudotaktowa	!	!LO:TX:t=P:problem=kreska pseudotaktowa	!	!	!	!LO:TX:t=P:problem=kreska pseudotaktowa	!
1C	.	1c	.	1e	.	0cc	.
!	!	!	!	!LO:TX:t=P:problem=kreska pseudotaktowa	!	!	!
2r	.	1F,<	.	0f	-e	.	.
2.c\	.	.	.	.	.	.	.
=30-	=30-	=30-	=30-	=30-	=30-	=30-	=30-
.	.	4F/	.	.	.	2r	.
4B-\	.	4G/	.	.	.	.	.
4A\	.	4A/	.	.	.	2.cc\	.
!LO:TX:t=P:problem=kreska pseudotaktowa	!	!	!	!	!	!	!
4G\	.	4B-/	.	.	.	.	.
1.F	.	2c/	.	2r	.	.	.
.	.	.	.	.	.	4b-\	.
.	.	2.d,</	.	2F,</	.	4a/	.
!	!	!	!	!	!	!LO:TX:t=P:problem=kreska pseudotaktowa	!
.	.	.	.	.	.	4g/	.
=31-	=31-	=31-	=31-	=31-	=31-	=31-	=31-
*	*	*	*	*lig	*	*	*
.	.	.	.	1c	.	2f/	.
.	.	4c/	.	.	.	.	.
2E/	.	1c	.	.	.	1a	.
1D	.	.	.	1d,<	.	.	.
*	*	*custos:c	*	*	*	*	*
!	!	!LO:TX:t=P:problem=kreska pseudotaktowa	!	!	!	!	!
.	.	2B-/	.	.	.	4g/	.
!	!	!	!	!	!	!LO:TX:t=P:problem=kreska pseudotaktowa	!
.	.	.	.	.	.	4f/	.
*	*	*	*	*Xlig	*	*	*
!	!	!LO:LB:g=original	!	!	!	!	!
=32-	=32-	=32-	=32-	=32-	=32-	=32-	=32-
!LO:TX:t=P:problem=kreska pseudotaktowa	!	!LO:TX:t=P:problem=kreska pseudotaktowa	!	!	!	!	!
0.C	.	0c	.	0.e	.	2a/	.
.	.	.	.	.	.	2g/	.
.	.	.	.	.	.	2.cc\	.
.	.	.	.	.	.	8b-\	.
.	.	.	.	.	.	8a,<\	.
=33-	=33-	=33-	=33-	=33-	=33-	=33-	=33-
.	.	1.c	.	.	.	2g/	.
.	.	.	.	.	.	2g/	.
!	!	!	!	!	!	!LO:TX:t=P:problem=kreska pseudotaktowa	!
1F	.	.	.	2.f\	.	1f,<	.
.	.	2A,</	.	.	.	.	.
!	!	!	!	!LO:TX:t=P:problem=kreska pseudotaktowa	!	!	!
.	.	.	.	4e\	.	.	.
=34-	=34-	=34-	=34-	=34-	=34-	=34-	=34-
2G\	.	2B-/	.	2d\	.	2r	.
!	!	!LO:TX:t=P:problem=kreska pseudotaktowa	!	!	!	!	!
2A\	.	2c/	.	1c	.	2cc\	.
2B-\	.	2G/	.	.	.	2dd\	.
!LO:TX:t=P:problem=kreska pseudotaktowa	!	!	!	!	!	!LO:TX:t=P:problem=kreska pseudotaktowa	!
2G\	.	2B-,</	.	2B-,</	.	2dd\	.
=35-	=35-	=35-	=35-	=35-	=35-	=35-	=35-
!	!	!	!	!LO:TX:t=P:problem=kreska pseudotaktowa	!	!	!
2c\	.	1A	.	1c	.	2.ee,<\	.
1C	.	.	.	.	.	.	.
!	!	!	!	!	!	!LO:TX:t=P:problem=kreska pseudotaktowa	!
.	.	.	.	.	.	4dd\	.
.	.	2G/	.	1c,<	.	4cc\	.
.	.	.	.	.	.	4b-\	.
!LO:TX:t=P:problem=kreska pseudotaktowa	!	!LO:TX:t=P:problem=kreska pseudotaktowa	!	!	!	!	!
2C/	.	2G/	.	.	.	2.cc\	.
=36-	=36-	=36-	=36-	=36-	=36-	=36-	=36-
1F	.	2A/	.	2c/	.	.	.
.	.	.	.	.	.	4b-\	.
*	*	*	*	*	*	*custos:a	*
!	!	!	!	!	!	!LO:TX:t=P:problem=kreska pseudotaktowa	!
.	.	1c	.	1f	.	2a/	.
!	!	!	!	!	!	!LO:LB:g=original	!
1G	.	.	.	.	.	2a/	.
!	!	!	!	!	!	!LO:TX:t=P:problem=kreska pseudotaktowa	!
.	.	2B-,</	.	2e,<\	.	2g/	.
=37-	=37-	=37-	=37-	=37-	=37-	=37-	=37-
!LO:TX:t=P:problem=kreska pseudotaktowa	!	!LO:TX:t=P:problem=kreska pseudotaktowa	!	!	!	!	!
*	*	*	*	*lig	*	*	*
1F	.	1c	.	1f	.	2a/	.
.	.	.	.	.	.	2.cc\	.
*	*	*	*	*custos:d	*	*	*
1C	.	2r	.	1e,<	.	.	.
.	.	.	.	.	.	4b-\	.
.	.	2c,</	.	.	.	4a/	.
!	!	!	!	!	!	!LO:TX:t=P:problem=kreska pseudotaktowa	!
.	.	.	.	.	.	4g/	.
*	*	*	*	*Xlig	*	*	*
!	!	!	!	!LO:LB:g=original	!	!	!
=38-	=38-	=38-	=38-	=38-	=38-	=38-	=38-
2D/	.	2.A/	.	2d\	.	2f/	.
1F	.	.	.	4c/	.	2.a/	.
.	.	4B-/	.	4B-/	.	.	.
.	.	2c/	.	4A/	.	.	.
.	.	.	.	4B-/	.	4g/	.
!	!	!	!	!	!	!LO:TX:t=P:problem=kreska pseudotaktowa, między nutą a kropką	!
2E/	e-	2G,</	e-	4c/	.	2.g/	.
!	!	!	!	!LO:TX:t=P:problem=kreska pseudotaktowa	!	!	!
.	.	.	.	4A/	.	.	.
=39-	=39-	=39-	=39-	=39-	=39-	=39-	=39-
2D/	-le-	1d	-le-	2.B-/	e-	.	.
.	.	.	.	.	.	4f/	.
2BB-/	.	.	.	.	.	1f	e-
.	.	.	.	4A/	.	.	.
1C	-i-	1c,<	-i-	2G/	-le-	.	.
.	.	.	.	2G,</	-i-	2e/	-lej-
=40-	=40-	=40-	=40-	=40-	=40-	=40-	=40-
0Fl;<	-ſon	0cl;	-ſon	0Fl	-ſon	0fl	-son
==	==	==	==	==	==	==	==
*-	*-	*-	*-	*-	*-	*-	*-
!!!system-decoration: [(*)]
!!!RDF**kern: < = below
!!!RDF**kern: l = terminal long
!!!ENC: Marta Opryszak
!!!END: 2022-01-04
!!!ENC: Andrzej Kubiczek
!!!END: 2022-01-05
!!!YEC: Copyright 2022 Narodowy Instytut Fryderyka Chopina (https://polishscores.org)
!!!YEM: Licence CC BY 4.0 (https://creativecommons.org/licenses/by/4.0)
